svgs/light/square-4.svg

<svg xmlns="http://www.w3.org/2000/svg" viewBox="0 0 448 512"><!-- Font Awesome Pro 6.0.0-alpha2 by @fontawesome - https://fontawesome.com License - https://fontawesome.com/license (Commercial License) --><path d="M384 32H64C28.654 32 0 60.654 0 96V416C0 451.346 28.654 480 64 480H384C419.346 480 448 451.346 448 416V96C448 60.654 419.346 32 384 32ZM416 416C416 433.645 401.645 448 384 448H64C46.355 448 32 433.645 32 416V96C32 78.355 46.355 64 64 64H384C401.645 64 416 78.355 416 96V416ZM304 288H288V208C288 199.156 280.844 192 272 192S256 199.156 256 208V288H151.625L206.859 149.938C210.141 141.75 206.141 132.438 197.937 129.156C189.812 125.844 180.406 129.844 177.141 138.062L113.141 298.062C111.172 303 111.781 308.562 114.75 312.969C117.734 317.375 122.688 320 128 320H256V368C256 376.844 263.156 384 272 384S288 376.844 288 368V320H304C312.844 320 320 312.844 320 304S312.844 288 304 288Z"/></svg>

<svg xmlns="http://www.w3.org/2000/svg" viewBox="0 0 448 512"><!--! Font Awesome Pro 6.0.0-alpha3 by @fontawesome - https://fontawesome.com License - https://fontawesome.com/license (Commercial License) --><path d="M384 32H64C28.65 32 0 60.65 0 96v320c0 35.35 28.65 64 64 64h320c35.35 0 64-28.65 64-64V96C448 60.65 419.3 32 384 32zM416 416c0 17.64-14.36 32-32 32H64c-17.64 0-32-14.36-32-32V96c0-17.64 14.36-32 32-32h320c17.64 0 32 14.36 32 32V416zM304 288H288V208C288 199.2 280.8 192 272 192S256 199.2 256 208V288H151.6l55.23-138.1c3.281-8.188-.7187-17.5-8.922-20.78C189.8 125.8 180.4 129.8 177.1 138.1l-64 160C111.2 303 111.8 308.6 114.8 312.1C117.7 317.4 122.7 320 128 320h128v48c0 8.844 7.156 16 16 16s16-7.156 16-16V320h16c8.844 0 16-7.156 16-16S312.8 288 304 288z"/></svg>
